X: 7172
T: Ciara's
R: reel
M: 4/4
K: Eminor
|:DEDE ~G3A|B2dB AAGA|BEED EEGE|GEGE DEGE|
DEDE ~G3A|B2dB ~A2G2|B/c/ded BAGA|1 BEED EFGE:|2 BEED E4||
|:dedc B~G3|BGDG B~G3|~e3d c~A3|cAEA c~A3|
dedc B~G3|BGDG B~G3|~e3B cBAG|1 EDEG A4:|2 EDEG A2GE||
|:D~G3 B~G3|D~G3 BGBG|E~A3 c~A3|cGBG AGEG|
D~G3 B~G3|D~G3 B3g|~e3d ~g3e|dBGB A2GE:|

